X:7615
T:Tommy Peoples'
O:england
R:Reel
S:Dermot Diamond, Belfast (fiddle)
H:Nos 26, 27 & 28 played as a set. Originally from Tommy Peoples.
D:Private tape - Milltown Malbay 1985
N:As played
M:4/4
K:D
{d}B2Bc dBAd | BFBc dfed | B2(3.d.d.d dBdB | ABde fe{f}ed | ~B3c dBAd |\
BFBc (3dcd ed | BGBd {e}dcdB | ABde fd~d2 || d3f bfaf | dfaf (3gfg fg |\
afge d3B | ABde fd~d2 | defa bfaf | d3f gefg | afge (3fef ed | BFBc dfed ||


